Catalina-dark/actions/22/mail-signature-unknown.svg

<svg xmlns="http://www.w3.org/2000/svg" viewBox="0 0 22 22">
  <defs id="defs3051">
    <style type="text/css" id="current-color-scheme">
      .ColorScheme-Text {
        color:#f2f2f2
      }
      </style>
  </defs>
  <path
     style="fill:#fdbc4b;fill-opacity:1;stroke:none"
     d="M 16.255859 3 C 16.111635 2.9999997 15.973267 3.0579842 15.871094 3.1601562 L 14.642578 4.3867188 L 17.613281 7.3554688 L 18.839844 6.1308594 C 19.052619 5.9180184 19.050631 5.5722158 18.837891 5.359375 L 16.642578 3.1621094 C 16.540339 3.0599365 16.400051 3 16.255859 3 z M 14.257812 4.7714844 L 13.833984 5.1992188 L 16.802734 8.1679688 L 17.228516 7.7402344 L 14.257812 4.7714844 z M 13.449219 5.5839844 L 13.021484 6.0097656 L 15.990234 8.9785156 L 16.417969 8.5527344 L 13.449219 5.5839844 z M 12.636719 6.3945312 L 4.2714844 14.759766 C 4.2118874 14.819426 4.1656933 14.892964 4.1386719 14.972656 L 3.0292969 18.28125 C 2.9638832 18.477624 3.0156625 18.691477 3.1621094 18.837891 C 3.2657852 18.941796 3.4047421 18.999994 3.546875 19 C 3.604844 18.999967 3.6637853 18.991796 3.7207031 18.972656 L 7.0273438 17.861328 C 7.1075918 17.834208 7.1807345 17.7901 7.2402344 17.730469 L 15.605469 9.3652344 L 12.636719 6.3945312 z "
     id="path4229" />
</svg>

<svg viewBox="0 0 22 22" xmlns="http://www.w3.org/2000/svg">
<defs>
<style id="current-color-scheme" type="text/css">.ColorScheme-Text {
        color:#dedede
      }</style>
</defs>
<path d="m16.256 3c-0.14422-3e-7 -0.28259 0.057984-0.38476 0.16016l-1.2285 1.2266 2.9707 2.9688 1.2266-1.2246c0.21278-0.21284 0.21079-0.55864-0.001953-0.77148l-2.1953-2.1973c-0.10224-0.10217-0.24253-0.16211-0.38672-0.16211zm-1.998 1.7715-0.42383 0.42773 2.9688 2.9688 0.42578-0.42773-2.9707-2.9688zm-0.80859 0.8125-0.42774 0.42578 2.9688 2.9688 0.42774-0.42578-2.9688-2.9688zm-0.8125 0.81055-8.3652 8.3652c-0.059597 0.05966-0.10579 0.1332-0.13281 0.21289l-1.1094 3.3086c-0.065414 0.19637-0.013634 0.41023 0.13281 0.55664 0.10368 0.1039 0.24263 0.1621 0.38477 0.16211 0.057969-3.3e-5 0.11691-0.008204 0.17383-0.027344l3.3066-1.1113c0.080248-0.02712 0.15339-0.071228 0.21289-0.13086l8.3652-8.3652-2.9688-2.9707z" fill="#fdbc4b"/>
</svg>
